evolvere-2-blue/actions/16/view-list-compact.svg

<?xml version="1.0" encoding="UTF-8"?>
<!-- Created with Inkscape (http://www.inkscape.org/) -->
<svg width="16" height="16" version="1.1" xmlns="http://www.w3.org/2000/svg" xmlns:cc="http://creativecommons.org/ns#" xmlns:dc="http://purl.org/dc/elements/1.1/" xmlns:rdf="http://www.w3.org/1999/02/22-rdf-syntax-ns#">
	<metadata>
		<rdf:RDF>
			<cc:Work rdf:about="">
				<dc:format>image/svg+xml</dc:format>
				<dc:type rdf:resource="http://purl.org/dc/dcmitype/StillImage"/>
			</cc:Work>
		</rdf:RDF>
	</metadata>
	<defs>
		<style id="current-color-scheme" type="text/css">
			.ColorScheme-Background{color:#ffffff;}
			.ColorScheme-Text{color:#090d11;}
		</style>
	</defs>
	<path d="m2 2c-0.554 0-1 0.446-1 1s0.446 1 1 1h4c0.554 0 1-0.446 1-1s-0.446-1-1-1h-4zm8 0c-0.554 0-1 0.446-1 1s0.446 1 1 1h4c0.554 0 1-0.446 1-1s-0.446-1-1-1h-4zm-8 5c-0.554 0-1 0.446-1 1s0.446 1 1 1h4c0.554 0 1-0.446 1-1s-0.446-1-1-1h-4zm8 0c-0.554 0-1 0.446-1 1s0.446 1 1 1h4c0.554 0 1-0.446 1-1s-0.446-1-1-1h-4zm-8 5c-0.554 0-1 0.446-1 1s0.446 1 1 1h4c0.554 0 1-0.446 1-1s-0.446-1-1-1h-4z" class="ColorScheme-Text" style="fill-opacity:.75;fill:currentColor"/>
	<path d="m1 0v1h6v-1h-6zm8 0v1h6v-1h-6zm-8 5v1h6v-1h-6zm8 0v1h6v-1h-6zm-8 5v1h6v-1h-6zm8 0v1h6v-1h-6zm-8 5v1h6v-1h-6z" class="ColorScheme-Background" style="fill-opacity:.5;fill:currentColor"/>
</svg>

<?xml version="1.0" encoding="UTF-8" standalone="no"?>
<!-- Created with Inkscape (http://www.inkscape.org/) -->

<svg
   xmlns:dc="http://purl.org/dc/elements/1.1/"
   xmlns:cc="http://creativecommons.org/ns#"
   xmlns:rdf="http://www.w3.org/1999/02/22-rdf-syntax-ns#"
   xmlns:svg="http://www.w3.org/2000/svg"
   xmlns="http://www.w3.org/2000/svg"
   xmlns:sodipodi="http://sodipodi.sourceforge.net/DTD/sodipodi-0.dtd"
   xmlns:inkscape="http://www.inkscape.org/namespaces/inkscape"
   width="16.000004"
   height="16.000004"
   id="svg13094"
   version="1.1"
   inkscape:version="0.48.3.1 r9886"
   sodipodi:docname="view-list-compact.svg">
  <sodipodi:namedview
     id="base"
     pagecolor="#ffffff"
     bordercolor="#666666"
     borderopacity="1.0"
     inkscape:pageopacity="0.0"
     inkscape:pageshadow="2"
     inkscape:zoom="32.000001"
     inkscape:cx="9.5019018"
     inkscape:cy="8.1404139"
     inkscape:document-units="px"
     inkscape:current-layer="svg13094"
     showgrid="false"
     inkscape:snap-bbox="true"
     inkscape:bbox-paths="true"
     inkscape:bbox-nodes="true"
     inkscape:snap-bbox-edge-midpoints="true"
     inkscape:snap-bbox-midpoints="true"
     inkscape:object-paths="true"
     inkscape:snap-intersection-paths="true"
     inkscape:object-nodes="true"
     inkscape:snap-smooth-nodes="true"
     inkscape:snap-midpoints="true"
     inkscape:snap-object-midpoints="true"
     inkscape:snap-center="true"
     showguides="true"
     inkscape:guide-bbox="true"
     inkscape:window-width="1920"
     inkscape:window-height="1023"
     inkscape:window-x="-10"
     inkscape:window-y="35"
     inkscape:window-maximized="1"
     inkscape:snap-global="true"
     fit-margin-top="0"
     fit-margin-left="0"
     fit-margin-right="0"
     fit-margin-bottom="0"
     showborder="true"
     inkscape:showpageshadow="false">
    <inkscape:grid
       type="xygrid"
       id="grid3075"
       empspacing="5"
       visible="true"
       enabled="true"
       snapvisiblegridlinesonly="true"
       originx="1.6362304e-08px"
       originy="4.9999976px" />
  </sodipodi:namedview>
  <defs
     id="defs13096" />
  <metadata
     id="metadata13099">
    <rdf:RDF>
      <cc:Work
         rdf:about="">
        <dc:format>image/svg+xml</dc:format>
        <dc:type
           rdf:resource="http://purl.org/dc/dcmitype/StillImage" />
        <dc:title />
      </cc:Work>
    </rdf:RDF>
  </metadata>
  <path
     style="color:#000000;fill:#27303a;fill-opacity:0.75328081999999996;fill-rule:nonzero;stroke:none;stroke-width:2;marker:none;visibility:visible;display:inline;overflow:visible;enable-background:accumulate"
     d="M 2 2 C 1.446 2 1 2.446 1 3 C 1 3.554 1.446 4 2 4 L 6 4 C 6.554 4 7 3.554 7 3 C 7 2.446 6.554 2 6 2 L 2 2 z M 10 2 C 9.446 2 9 2.446 9 3 C 9 3.554 9.446 4 10 4 L 14 4 C 14.554 4 15 3.554 15 3 C 15 2.446 14.554 2 14 2 L 10 2 z M 2 7 C 1.446 7 1 7.446 1 8 C 1 8.554 1.446 9 2 9 L 6 9 C 6.554 9 7 8.554 7 8 C 7 7.446 6.554 7 6 7 L 2 7 z M 10 7 C 9.446 7 9 7.446 9 8 C 9 8.554 9.446 9 10 9 L 14 9 C 14.554 9 15 8.554 15 8 C 15 7.446 14.554 7 14 7 L 10 7 z M 2 12 C 1.446 12 1 12.446 1 13 C 1 13.554 1.446 14 2 14 L 6 14 C 6.554 14 7 13.554 7 13 C 7 12.446 6.554 12 6 12 L 2 12 z "
     id="rect3090" />
  <path
     style="color:#000000;fill:#f1f3f5;fill-opacity:0.90288714000000003;fill-rule:nonzero;stroke:none;stroke-width:2;marker:none;visibility:visible;display:inline;overflow:visible;enable-background:accumulate"
     d="M 1 0 L 1 1 L 7 1 L 7 0 L 1 0 z M 9 0 L 9 1 L 15 1 L 15 0 L 9 0 z M 1 5 L 1 6 L 7 6 L 7 5 L 1 5 z M 9 5 L 9 6 L 15 6 L 15 5 L 9 5 z M 1 10 L 1 11 L 7 11 L 7 10 L 1 10 z M 9 10 L 9 11 L 15 11 L 15 10 L 9 10 z M 1 15 L 1 16 L 7 16 L 7 15 L 1 15 z "
     id="rect3865" />
</svg>
